X:1
T:Count It All Joy
T:Count It All Joy
T:William Edie Marks
T:William Edie Marks, 1906
T:Public Domain Courtesy of the Cyber Hymnal™
T:Public Domain Courtesy of the Cyber Hymnal™
C:William Edie Marks
Z:Public Domain
Z:Courtesy of the Cyber Hymnal™
%%score ( 1 2 ) ( 3 4 )
L:1/8
Q:1/4=95
M:4/4
K:Eb
V:1 treble 
V:2 treble 
V:3 bass 
V:4 bass 
V:1
 [EG][GB] [GB]2 [GB]3 [GB] | [Ac][ce][Bd][Ac] [GB]2 [EG]2 | E[EF][EG][FA] [GB][Ac][GB][EG] | %3
w: 1.~Count it all joy to|bear the cross of Je- sus!|Just a lit- tle bur- den for the|
w: 2.~Count it all joy when|sore- ly tried and tempt- ed!|He has prom- ised grace to help in|
w: 3.~Count it all joy when|walk- ing thro’ the val- ley!|Ev- en in the night the Lord will|
 [EG]2 [DF]2 [DF]4 | [EG][GB] [GB]2 [GB]3 [GB] | [Ac][ce][Bd][Ac] [GB]2 [EG]2 | %6
w: Mas- ter’s sake;|Soon there will be ex-|ceed- ing weight of glo- ry|
w: time of need;|Trust- ing in God, press|ev- er on to con- quer,|
w: give a song;|Je- sus can turn thy|sor- row in- to glad- ness;|
 [Ge][Ae][Be][Ac] [GB][FB][EB][EA] | [EG]2 [DF]2 E4 ||"^Refrain" [EG][GB] [GB]2 [GB]4 | %9
w: For His tried and faith- ful ser- vants|to par- take.||
w: He will al- ways prove to be a|friend in- deed.|Count it all joy,|
w: Praise and hon- or un- to Him for|aye be- long.||
 [Ac][Ae] [Ae]2 [Ae]4 | [Ae][Ae][Ad][Ac] [GB][GB][^F=A][GB] | [Fd]2 [Ec]2 [DB]4 | %12
w: |||
w: count it all joy,|Count it joy to serve the Lord from|day to day;|
w: |||
 [EG][GB] [GB]2 [GB]3 [GB] | [Ac][ce][Bd][Ac] [GB]2 [EG]2 | [Ge][Ae][Be][Ac] [GB][FB][EB][EA] | %15
w: |||
w: Count it all joy to|bear the cross of Je- sus,|All things work for good to those who|
w: |||
 [EG]2 [DF]2 [B,E]4 |] %16
w: |
w: love the Lord.|
w: |
V:2
 x8 | x8 | E x7 | x8 | x8 | x8 | x8 | x4 E4 || x8 | x8 | x8 | x8 | x8 | x8 | x8 | x8 |] %16
V:3
 [E,B,][E,E] [E,E]2 [E,E]3 [E,E] | [A,E][A,E][A,E][A,E] [E,E]2 [E,B,]2 | %2
 [E,G,][E,A,][E,B,][E,B,] [E,E][E,E][E,E][E,B,] | [B,,B,]2 [B,,B,]2 [B,,B,]4 | %4
 [E,B,][E,E] [E,E]2 [E,E]3 [E,E] | [A,E][A,E][A,E][A,E] [E,E]2 [E,B,]2 | %6
 [E,B,][F,B,][G,E][A,E] [E,E][F,D][G,E][A,C] | B,2 [B,,A,]2 [E,G,]4 || [E,B,][E,E] [E,E]2 [E,E]4 | %9
 [A,E][A,C] [A,C]2 [A,C]4 | [A,C][A,C][A,C][A,E] [E,E][E,E][E,E][E,E] | [F,B,]2 [F,=A,]2 [B,,B,]4 | %12
 [E,B,][E,E] [E,E]2 [E,E]3 [E,E] | [A,E][A,E][A,E][A,E] [E,E]2 [E,B,]2 | %14
 [E,B,][F,B,][G,E][A,E] [E,E][F,D][G,E][A,C] | [B,,B,]2 [B,,A,]2 [E,G,]4 |] %16
V:4
 x8 | x8 | x8 | x8 | x8 | x8 | x8 | B,2 x6 || x8 | x8 | x8 | x8 | x8 | x8 | x8 | x8 |] %16

